pldoc/static/images/icons/envelope-o.svg

<?xml version="1.0" encoding="utf-8"?>
<!-- Generated by IcoMoon.io -->
<!DOCTYPE svg PUBLIC "-//W3C//DTD SVG 1.1//EN" "http://www.w3.org/Graphics/SVG/1.1/DTD/svg11.dtd">
<svg version="1.1" xmlns="http://www.w3.org/2000/svg" xmlns:xlink="http://www.w3.org/1999/xlink" width="14" height="14" viewBox="0 0 14 14">
<path fill="#444444" d="M13 11.75v-6q-0.25 0.281-0.539 0.516-2.094 1.609-3.328 2.641-0.398 0.336-0.648 0.523t-0.676 0.379-0.801 0.191h-0.016q-0.375 0-0.801-0.191t-0.676-0.379-0.648-0.523q-1.234-1.031-3.328-2.641-0.289-0.234-0.539-0.516v6q0 0.102 0.074 0.176t0.176 0.074h11.5q0.102 0 0.176-0.074t0.074-0.176zM13 3.539v-0.191t-0.004-0.102-0.023-0.098-0.043-0.070-0.070-0.059-0.109-0.020h-11.5q-0.102 0-0.176 0.074t-0.074 0.176q0 1.312 1.148 2.219 1.508 1.187 3.133 2.477 0.047 0.039 0.273 0.23t0.359 0.293 0.348 0.246 0.395 0.215 0.336 0.070h0.016q0.156 0 0.336-0.070t0.395-0.215 0.348-0.246 0.359-0.293 0.273-0.23q1.625-1.289 3.133-2.477 0.422-0.336 0.785-0.902t0.363-1.027zM14 3.25v8.5q0 0.516-0.367 0.883t-0.883 0.367h-11.5q-0.516 0-0.883-0.367t-0.367-0.883v-8.5q0-0.516 0.367-0.883t0.883-0.367h11.5q0.516 0 0.883 0.367t0.367 0.883z"></path>
</svg>

<svg xmlns="http://www.w3.org/2000/svg" width="14" height="14" viewBox="0 0 14 14"><path fill="#444" d="M13 11.75v-6q-.25.28-.54.516-2.093 1.61-3.327 2.64-.398.337-.648.524t-.676.38-.803.19H6.99q-.374 0-.8-.19t-.676-.38-.648-.523q-1.234-1.03-3.328-2.64Q1.25 6.03 1 5.75v6q0 .102.074.176T1.25 12h11.5q.102 0 .176-.074T13 11.75zm0-8.21v-.192l-.004-.102-.023-.098-.043-.07-.07-.06-.11-.02H1.25q-.1 0-.175.075T1 3.25q0 1.31 1.15 2.218 1.506 1.187 3.13 2.477.047.04.273.23t.36.293.347.246.395.215.336.07h.017q.155 0 .335-.07t.395-.217.348-.246.36-.293.272-.23q1.625-1.29 3.133-2.477.422-.336.785-.902T13 3.54zm1-.29v8.5q0 .516-.367.883T12.75 13H1.25q-.516 0-.883-.367T0 11.75v-8.5q0-.516.367-.883T1.25 2h11.5q.516 0 .883.367T14 3.25z"/></svg>
